svg/file/file_import_line.svg

<?xml version="1.0" encoding="UTF-8"?>
<svg width="24px" height="24px" viewBox="0 0 24 24" version="1.1" xmlns="http://www.w3.org/2000/svg" xmlns:xlink="http://www.w3.org/1999/xlink">
    <title>file_import_line</title>
    <g id="页面-1" stroke="none" stroke-width="1" fill="none" fill-rule="evenodd">
        <g id="File" transform="translate(-240.000000, -96.000000)">
            <g id="file_import_line" transform="translate(240.000000, 96.000000)">
                 <path d="M24,0 L24,24 L0,24 L0,0 L24,0 Z M12.5934901,23.257841 L12.5819402,23.2595131 L12.5108777,23.2950439 L12.4918791,23.2987469 L12.4918791,23.2987469 L12.4767152,23.2950439 L12.4056548,23.2595131 C12.3958229,23.2563662 12.3870493,23.2590235 12.3821421,23.2649074 L12.3780323,23.275831 L12.360941,23.7031097 L12.3658947,23.7234994 L12.3769048,23.7357139 L12.4804777,23.8096931 L12.4953491,23.8136134 L12.4953491,23.8136134 L12.5071152,23.8096931 L12.6106902,23.7357139 L12.6232938,23.7196733 L12.6232938,23.7196733 L12.6266527,23.7031097 L12.609561,23.275831 C12.6075724,23.2657013 12.6010112,23.2592993 12.5934901,23.257841 L12.5934901,23.257841 Z M12.8583906,23.1452862 L12.8445485,23.1473072 L12.6598443,23.2396597 L12.6498822,23.2499052 L12.6498822,23.2499052 L12.6471943,23.2611114 L12.6650943,23.6906389 L12.6699349,23.7034178 L12.6699349,23.7034178 L12.678386,23.7104931 L12.8793402,23.8032389 C12.8914285,23.8068999 12.9022333,23.8029875 12.9078286,23.7952264 L12.9118235,23.7811639 L12.8776777,23.1665331 C12.8752882,23.1545897 12.8674102,23.1470016 12.8583906,23.1452862 L12.8583906,23.1452862 Z M12.1430473,23.1473072 C12.1332178,23.1423925 12.1221763,23.1452606 12.1156365,23.1525954 L12.1099173,23.1665331 L12.0757714,23.7811639 C12.0751323,23.7926639 12.0828099,23.8018602 12.0926481,23.8045676 L12.108256,23.8032389 L12.3092106,23.7104931 L12.3186497,23.7024347 L12.3186497,23.7024347 L12.3225043,23.6906389 L12.340401,23.2611114 L12.337245,23.2485176 L12.337245,23.2485176 L12.3277531,23.2396597 L12.1430473,23.1473072 Z" id="MingCute" fill-rule="nonzero"></path>
                <path d="M13.5858,2 C14.0572667,2 14.5115877,2.16648691 14.870172,2.46691468 L15,2.58579 L19.4142,7 C19.7476222,7.33339556 19.9511481,7.77238321 19.9922598,8.23835797 L20,8.41421 L20,20 C20,21.0543909 19.18415,21.9181678 18.1492661,21.9945144 L18,22 L12,22 L12,20 L18,20 L18,10 L13.5,10 C12.7203294,10 12.0795543,9.40511446 12.0068668,8.64446046 L12,8.5 L12,4 L6,4 L6,12 L4,12 L4,4 C4,2.94563773 4.81587733,2.08183483 5.85073759,2.00548573 L6,2 L13.5858,2 Z M7.70705,14.4645 L10.5355,17.2929 C10.926,17.6834 10.926,18.3166 10.5355,18.7071 L7.70705,21.5355 C7.31652,21.9261 6.68336,21.9261 6.29284,21.5355 C5.90231,21.145 5.90231,20.5118 6.29284,20.1213 L7.41416,19 L3,19 C2.44772,19 2,18.5523 2,18 C2,17.4477 2.44772,17 3,17 L7.41416,17 L6.29284,15.8787 C5.90231,15.4882 5.90231,14.855 6.29284,14.4645 C6.68336,14.0739 7.31652,14.0739 7.70705,14.4645 Z M14,4.41421 L14,8 L17.5858,8 L14,4.41421 Z" id="形状" fill="#09244B"></path>
            </g>
        </g>
    </g>
</svg>

<svg xmlns="http://www.w3.org/2000/svg" width="24" height="24"><g fill="none" fill-rule="evenodd"><path d="M24 0v24H0V0h24ZM12.593 23.258l-.011.002-.071.035-.02.004-.014-.004-.071-.035c-.01-.004-.019-.001-.024.005l-.004.01-.017.428.005.02.01.013.104.074.015.004.012-.004.104-.074.012-.016.004-.017-.017-.427c-.002-.01-.009-.017-.017-.018Zm.265-.113-.013.002-.185.093-.01.01-.003.011.018.43.005.012.008.007.201.093c.012.004.023 0 .029-.008l.004-.014-.034-.614c-.003-.012-.01-.02-.02-.022Zm-.715.002a.023.023 0 0 0-.027.006l-.006.014-.034.614c0 .012.007.02.017.024l.015-.002.201-.093.01-.008.004-.011.017-.43-.003-.012-.01-.01-.184-.092Z"/><path fill="#09244B" d="M13.586 2a2 2 0 0 1 1.284.467l.13.119L19.414 7a2 2 0 0 1 .578 1.238l.008.176V20a2 2 0 0 1-1.85 1.995L18 22h-6v-2h6V10h-4.5a1.5 1.5 0 0 1-1.493-1.356L12 8.5V4H6v8H4V4a2 2 0 0 1 1.85-1.995L6 2h7.586ZM7.707 14.465l2.829 2.828a1 1 0 0 1 0 1.414l-2.829 2.828a1 1 0 1 1-1.414-1.414L7.414 19H3a1 1 0 1 1 0-2h4.414l-1.121-1.121a1 1 0 1 1 1.414-1.415ZM14 4.414V8h3.586L14 4.414Z"/></g></svg>
